X: 10142
T: TIMOUR THE TARTAR
Q: "Lively."
%R: reel
B: W. Hamilton "Universal Tune-Book" Vol. 1 Glasgow 1844 p.14 #2
S: http://imslp.org/wiki/Hamilton's_Universal_Tune-Book_(Various)
Z: 2016 John Chambers <jc:trillian.mit.edu>
M: C
L: 1/8
K: A
% - - - - - - - - - - - - - - - - - - - - - - - - -
[|\
A2 (3(cBA) eA (3(cBA) | eAaA gAfA | eA (3(cBA) eAfA | BEcE dEBE |\
A2 (3(cBA) eA (3(cBA) | eAaA gAfA | eaec eaec | BABc A2 H|]
[|\
E2 (3(GFE) BE (3(GFE) | BEdE cEBE | A2 (3(cBA) eA (3(cBA) | eAaA gAfA |\
e^dec agaf | e^dec agaf | ecag fedc | BAGF EF"^D.C."GE |]
% - - - - - - - - - - - - - - - - - - - - - - - - -

%%sep 1 1 500
%%sep 1 1 500

